symbols/fr/S_H-RR-A.svg

<?xml version="1.0" encoding="UTF-8"?>
<svg xmlns="http://www.w3.org/2000/svg" xmlns:xlink="http://www.w3.org/1999/xlink" width="16" height="27.253745" viewBox="0 0 16 27.253745">
<path fill-rule="nonzero" fill="rgb(0%, 0%, 0%)" fill-opacity="1" d="M 3.929688 4.066406 C 6.101562 4.066406 7.863281 5.828125 7.863281 8 L 7.863281 23.320312 C 7.863281 25.492188 6.101562 27.253906 3.929688 27.253906 C 1.761719 27.253906 0 25.492188 0 23.320312 L 0 8 C 0 5.828125 1.761719 4.066406 3.929688 4.066406 Z M 3.929688 4.066406 "/>
<path fill-rule="nonzero" fill="rgb(0%, 0%, 0%)" fill-opacity="1" d="M 3.929688 4.066406 L 12.066406 4.066406 C 14.234375 4.066406 16 5.828125 16 8 L 16 12.066406 C 16 14.238281 14.234375 16 12.066406 16 L 3.929688 16 C 1.761719 16 0 14.238281 0 12.066406 L 0 8 C 0 5.828125 1.761719 4.066406 3.929688 4.066406 Z M 3.929688 4.066406 "/>
<path fill-rule="nonzero" fill="rgb(0%, 0%, 0%)" fill-opacity="1" d="M 12.066406 0 C 14.234375 0 16 1.761719 16 3.933594 L 16 12.066406 C 16 14.238281 14.234375 16 12.066406 16 C 9.890625 16 8.132812 14.238281 8.132812 12.066406 L 8.132812 3.933594 C 8.132812 1.761719 9.890625 0 12.066406 0 Z M 12.066406 0 "/>
<path fill-rule="nonzero" fill="rgb(100%, 100%, 100%)" fill-opacity="1" d="M 3.929688 4.273438 L 12.066406 4.273438 C 14.125 4.273438 15.792969 5.9375 15.792969 8 L 15.792969 12.066406 C 15.792969 14.125 14.125 15.796875 12.066406 15.796875 L 3.929688 15.796875 C 1.871094 15.796875 0.203125 14.125 0.203125 12.066406 L 0.203125 8 C 0.203125 5.9375 1.871094 4.273438 3.929688 4.273438 Z M 3.929688 4.273438 "/>
<path fill-rule="nonzero" fill="rgb(100%, 100%, 100%)" fill-opacity="1" d="M 12.066406 0.203125 C 14.125 0.203125 15.792969 1.875 15.792969 3.933594 L 15.792969 12.066406 C 15.792969 14.125 14.125 15.796875 12.066406 15.796875 C 10.003906 15.796875 8.335938 14.125 8.335938 12.066406 L 8.335938 3.933594 C 8.335938 1.875 10.003906 0.203125 12.066406 0.203125 Z M 12.066406 0.203125 "/>
<path fill-rule="nonzero" fill="rgb(0%, 0%, 0%)" fill-opacity="1" d="M 12.066406 0.609375 C 13.898438 0.609375 15.386719 2.09375 15.386719 3.933594 L 15.386719 12.066406 C 15.386719 13.902344 13.898438 15.390625 12.066406 15.390625 C 10.230469 15.390625 8.746094 13.902344 8.746094 12.066406 L 8.746094 3.933594 C 8.746094 2.09375 10.230469 0.609375 12.066406 0.609375 Z M 12.066406 0.609375 "/>
<path fill-rule="nonzero" fill="rgb(0%, 0%, 0%)" fill-opacity="1" d="M 0 19.390625 L 7.863281 19.390625 L 7.863281 27.253906 L 0 27.253906 Z M 0 19.390625 "/>
<path fill-rule="nonzero" fill="rgb(100%, 100%, 100%)" fill-opacity="1" d="M 3.929688 4.273438 C 5.988281 4.273438 7.660156 5.9375 7.660156 8 L 7.660156 22.914062 C 7.660156 24.976562 5.988281 26.644531 3.929688 26.644531 C 1.871094 26.644531 0.203125 24.976562 0.203125 22.914062 L 0.203125 8 C 0.203125 5.9375 1.871094 4.273438 3.929688 4.273438 Z M 3.929688 4.273438 "/>
<path fill-rule="nonzero" fill="rgb(0%, 0%, 0%)" fill-opacity="1" d="M 3.929688 4.679688 L 12.066406 4.679688 C 13.898438 4.679688 15.386719 6.164062 15.386719 8 L 15.386719 12.066406 C 15.386719 13.902344 13.898438 15.390625 12.066406 15.390625 L 3.929688 15.390625 C 2.09375 15.390625 0.609375 13.902344 0.609375 12.066406 L 0.609375 8 C 0.609375 6.164062 2.09375 4.679688 3.929688 4.679688 Z M 3.929688 4.679688 "/>
<path fill-rule="nonzero" fill="rgb(0%, 0%, 0%)" fill-opacity="1" d="M 3.921875 4.671875 C 5.761719 4.671875 7.246094 6.15625 7.246094 7.992188 L 7.246094 22.90625 C 7.246094 24.746094 5.761719 26.230469 3.921875 26.230469 C 2.085938 26.230469 0.601562 24.746094 0.601562 22.90625 L 0.601562 7.992188 C 0.601562 6.15625 2.085938 4.671875 3.921875 4.671875 Z M 3.921875 4.671875 "/>
<path fill-rule="nonzero" fill="rgb(20%, 20%, 20%)" fill-opacity="1" d="M 5.089844 16.945312 C 5.089844 17.582031 4.574219 18.09375 3.9375 18.09375 C 3.300781 18.09375 2.785156 17.582031 2.785156 16.945312 C 2.785156 16.304688 3.300781 15.789062 3.9375 15.789062 C 4.574219 15.789062 5.089844 16.304688 5.089844 16.945312 Z M 5.089844 16.945312 "/>
<path fill-rule="nonzero" fill="rgb(20%, 20%, 20%)" fill-opacity="1" d="M 5.089844 19.925781 C 5.089844 20.5625 4.574219 21.078125 3.9375 21.078125 C 3.300781 21.078125 2.785156 20.5625 2.785156 19.925781 C 2.785156 19.289062 3.300781 18.773438 3.9375 18.773438 C 4.574219 18.773438 5.089844 19.289062 5.089844 19.925781 Z M 5.089844 19.925781 "/>
<path fill-rule="nonzero" fill="rgb(20%, 20%, 20%)" fill-opacity="1" d="M 3.039062 9.75 L 4.785156 9.75 C 4.953125 9.75 5.089844 9.886719 5.089844 10.054688 L 5.089844 11.820312 C 5.089844 11.992188 4.953125 12.128906 4.785156 12.128906 L 3.039062 12.128906 C 2.871094 12.128906 2.734375 11.992188 2.734375 11.820312 L 2.734375 10.054688 C 2.734375 9.886719 2.871094 9.75 3.039062 9.75 Z M 3.039062 9.75 "/>
<path fill-rule="nonzero" fill="rgb(20%, 20%, 20%)" fill-opacity="1" d="M 5.089844 13.957031 C 5.089844 14.59375 4.574219 15.109375 3.9375 15.109375 C 3.300781 15.109375 2.785156 14.59375 2.785156 13.957031 C 2.785156 13.320312 3.300781 12.800781 3.9375 12.800781 C 4.574219 12.800781 5.089844 13.320312 5.089844 13.957031 Z M 5.089844 13.957031 "/>
<path fill-rule="nonzero" fill="rgb(20%, 20%, 20%)" fill-opacity="1" d="M 3.085938 12.800781 L 4.789062 12.800781 C 4.957031 12.800781 5.089844 12.933594 5.089844 13.097656 L 5.089844 14.808594 C 5.089844 14.976562 4.957031 15.109375 4.789062 15.109375 L 3.085938 15.109375 C 2.917969 15.109375 2.785156 14.976562 2.785156 14.808594 L 2.785156 13.097656 C 2.785156 12.933594 2.917969 12.800781 3.085938 12.800781 Z M 3.085938 12.800781 "/>
<path fill-rule="nonzero" fill="rgb(100%, 100%, 0%)" fill-opacity="1" d="M 5.089844 22.90625 C 5.089844 23.546875 4.574219 24.0625 3.9375 24.0625 C 3.300781 24.0625 2.785156 23.546875 2.785156 22.90625 C 2.785156 22.269531 3.300781 21.757812 3.9375 21.757812 C 4.574219 21.757812 5.089844 22.269531 5.089844 22.90625 Z M 5.089844 22.90625 "/>
<path fill-rule="nonzero" fill="rgb(20%, 20%, 20%)" fill-opacity="1" d="M 5.0625 10.972656 C 5.0625 11.609375 4.546875 12.125 3.914062 12.125 C 3.277344 12.125 2.761719 11.609375 2.761719 10.972656 C 2.761719 10.335938 3.277344 9.816406 3.914062 9.816406 C 4.546875 9.816406 5.0625 10.335938 5.0625 10.972656 Z M 5.0625 10.972656 "/>
<path fill-rule="nonzero" fill="rgb(20%, 20%, 20%)" fill-opacity="1" d="M 5.089844 7.992188 C 5.089844 8.628906 4.574219 9.148438 3.9375 9.148438 C 3.300781 9.148438 2.785156 8.628906 2.785156 7.992188 C 2.785156 7.355469 3.300781 6.839844 3.9375 6.839844 C 4.574219 6.839844 5.089844 7.355469 5.089844 7.992188 Z M 5.089844 7.992188 "/>
<path fill-rule="nonzero" fill="rgb(100%, 100%, 0%)" fill-opacity="1" d="M 13.226562 3.925781 C 13.226562 4.5625 12.710938 5.078125 12.074219 5.078125 C 11.4375 5.078125 10.917969 4.5625 10.917969 3.925781 C 10.917969 3.289062 11.4375 2.773438 12.074219 2.773438 C 12.710938 2.773438 13.226562 3.289062 13.226562 3.925781 Z M 13.226562 3.925781 "/>
<path fill-rule="nonzero" fill="rgb(20%, 20%, 20%)" fill-opacity="1" d="M 13.226562 7.992188 C 13.226562 8.628906 12.710938 9.148438 12.074219 9.148438 C 11.4375 9.148438 10.917969 8.628906 10.917969 7.992188 C 10.917969 7.355469 11.4375 6.839844 12.074219 6.839844 C 12.710938 6.839844 13.226562 7.355469 13.226562 7.992188 Z M 13.226562 7.992188 "/>
<path fill-rule="nonzero" fill="rgb(100%, 100%, 0%)" fill-opacity="1" d="M 13.226562 12.0625 C 13.226562 12.699219 12.710938 13.214844 12.074219 13.214844 C 11.4375 13.214844 10.917969 12.699219 10.917969 12.0625 C 10.917969 11.425781 11.4375 10.90625 12.074219 10.90625 C 12.710938 10.90625 13.226562 11.425781 13.226562 12.0625 Z M 13.226562 12.0625 "/>
</svg>

<?xml version="1.0" encoding="UTF-8"?>
<svg version="1.1" viewBox="0 0 16.016 27.281" xmlns="http://www.w3.org/2000/svg"><path d="m3.9336 4.0703c2.1758 0 3.9375 1.7656 3.9375 3.9375v15.336c0 2.1758-1.7617 3.9375-3.9375 3.9375-2.1719 0-3.9336-1.7617-3.9336-3.9375v-15.336c0-2.1719 1.7617-3.9375 3.9336-3.9375z"/><path d="m3.9336 4.0703h8.1445c2.1719 0 3.9375 1.7656 3.9375 3.9375v4.0703c0 2.1758-1.7656 3.9375-3.9375 3.9375h-8.1445c-2.1719 0-3.9336-1.7617-3.9336-3.9375v-4.0703c0-2.1719 1.7617-3.9375 3.9336-3.9375z"/><path d="m12.078 0c2.1719 0 3.9375 1.7617 3.9375 3.9375v8.1406c0 2.1758-1.7656 3.9375-3.9375 3.9375-2.1758 0-3.9375-1.7617-3.9375-3.9375v-8.1406c0-2.1758 1.7617-3.9375 3.9375-3.9375z"/><path d="m3.9336 4.2773h8.1445c2.0625 0 3.7305 1.668 3.7305 3.7305v4.0703c0 2.0625-1.668 3.7344-3.7305 3.7344h-8.1445c-2.0625 0-3.7305-1.6719-3.7305-3.7344v-4.0703c0-2.0625 1.668-3.7305 3.7305-3.7305z" fill="#fff"/><path d="m12.078 0.20312c2.0625 0 3.7305 1.6719 3.7305 3.7344v8.1406c0 2.0625-1.668 3.7344-3.7305 3.7344s-3.7344-1.6719-3.7344-3.7344v-8.1406c0-2.0625 1.6719-3.7344 3.7344-3.7344z" fill="#fff"/><path d="m12.078 0.60938c1.8359 0 3.3242 1.4883 3.3242 3.3281v8.1406c0 1.8398-1.4883 3.3281-3.3242 3.3281s-3.3242-1.4883-3.3242-3.3281v-8.1406c0-1.8398 1.4883-3.3281 3.3242-3.3281z"/><path d="m0 19.41h7.8711v7.8711h-7.8711z"/><path d="m3.9336 4.2773c2.0625 0 3.7344 1.668 3.7344 3.7305v14.93c0 2.0625-1.6719 3.7344-3.7344 3.7344s-3.7305-1.6719-3.7305-3.7344v-14.93c0-2.0625 1.668-3.7305 3.7305-3.7305z" fill="#fff"/><path d="m3.9336 4.6836h8.1445c1.8359 0 3.3242 1.4883 3.3242 3.3242v4.0703c0 1.8398-1.4883 3.3281-3.3242 3.3281h-8.1445c-1.8359 0-3.3242-1.4883-3.3242-3.3281v-4.0703c0-1.8359 1.4883-3.3242 3.3242-3.3242z"/><path d="m3.9258 4.6758c1.8398 0 3.3281 1.4883 3.3281 3.3242v14.93c0 1.8398-1.4883 3.3281-3.3281 3.3281-1.8359 0-3.3242-1.4883-3.3242-3.3281v-14.93c0-1.8359 1.4883-3.3242 3.3242-3.3242z"/><g fill="#333"><path d="m5.0938 16.961c0 0.63672-0.51562 1.1523-1.1523 1.1523-0.63672 0-1.1523-0.51562-1.1523-1.1523 0-0.64063 0.51562-1.1562 1.1523-1.1562 0.63672 0 1.1523 0.51562 1.1523 1.1562z"/><path d="m5.0938 19.945c0 0.63672-0.51562 1.1523-1.1523 1.1523-0.63672 0-1.1523-0.51562-1.1523-1.1523 0-0.63672 0.51562-1.1523 1.1523-1.1523 0.63672 0 1.1523 0.51562 1.1523 1.1523z"/><path d="m3.0437 9.7601h1.745c0.16922 0 0.30517 0.13737 0.30517 0.30557v1.7662c0 0.171-0.13594 0.30838-0.30517 0.30838h-1.745c-0.16923 0-0.30517-0.13737-0.30517-0.30838v-1.7662c0-0.16821 0.13594-0.30557 0.30517-0.30557z" stroke-width=".71393"/><path d="m5.0938 13.97c0 0.63794-0.51562 1.1545-1.1523 1.1545-0.63672 0-1.1523-0.5166-1.1523-1.1545 0-0.63794 0.51562-1.1545 1.1523-1.1545 0.63672 0 1.1523 0.51661 1.1523 1.1545z" stroke-width="1.001"/><path d="m3.0877 12.815h1.7077c0.16561 0 0.29865 0.13326 0.29865 0.29644v1.7134c0 0.16589-0.13303 0.29916-0.29865 0.29916h-1.7077c-0.16562 0-0.29865-0.13326-0.29865-0.29916v-1.7134c0-0.16318 0.13303-0.29644 0.29865-0.29644z" stroke-width=".69563"/></g><path d="m5.0938 22.93c0 0.64062-0.51562 1.1562-1.1523 1.1562-0.63672 0-1.1523-0.51563-1.1523-1.1562 0-0.63672 0.51562-1.1523 1.1523-1.1523 0.63672 0 1.1523 0.51562 1.1523 1.1523z" fill="#ff0"/><path d="m5.0686 10.983c0 0.63672-0.51571 1.1523-1.1525 1.1523-0.63683 0-1.1525-0.51562-1.1525-1.1523s0.51571-1.1562 1.1525-1.1562c0.63683 0 1.1525 0.51953 1.1525 1.1562z" fill="#333" stroke-width="1.0001"/><path d="m5.0938 8c0 0.63672-0.51562 1.1562-1.1523 1.1562-0.63672 0-1.1523-0.51953-1.1523-1.1562s0.51562-1.1523 1.1523-1.1523c0.63672 0 1.1523 0.51562 1.1523 1.1523z" fill="#333"/><path d="m13.238 3.9297c0 0.63672-0.51563 1.1523-1.1523 1.1523-0.63672 0-1.1562-0.51562-1.1562-1.1523 0-0.63672 0.51953-1.1523 1.1562-1.1523 0.63672 0 1.1523 0.51562 1.1523 1.1523z" fill="#ff0"/><path d="m13.238 8c0 0.63672-0.51563 1.1562-1.1523 1.1562-0.63672 0-1.1562-0.51953-1.1562-1.1562s0.51953-1.1523 1.1562-1.1523c0.63672 0 1.1523 0.51562 1.1523 1.1523z" fill="#333"/><path d="m13.238 12.074c0 0.63672-0.51563 1.1523-1.1523 1.1523-0.63672 0-1.1562-0.51562-1.1562-1.1523s0.51953-1.1562 1.1562-1.1562c0.63672 0 1.1523 0.51953 1.1523 1.1562z" fill="#ff0"/></svg>
